X: 19509
T: Jacky Tar
R: hornpipe
M: 4/4
K: Eminor
Bd|:~e2ed effe|dBBA BcdB|ABde fg ef|fedB BA (3Bcd|
e2ef g2ef|fedB BABd|B2BA GBcB|AGED E4:|
|:BGEG BGEG|BdBA GEEF|DFAB A2 FA|dBAF EDEF|
GABA Bdgd|B2BA Bcd2|B2BA GBdB|AGED E4:|

